!!!COM: Claude Goudimel
!!!OMD: Psalm 119: Bienheureuse est la personne
**kern	**kern	**kern	**kern
*part4	*part3	*part2	*part1
*staff4	*staff3	*staff2	*staff1
*clefF4	*clefGv2	*clefG2	*clefG2
*k[b-]	*k[b-]	*k[b-]	*k[b-]
!!LO:TX:omd:t=
*M4/4	*M4/4	*M4/4	*M4/4
=1	=1	=1	=1
2F	2c	2f	2f
4C	4c	4e	4g
4F	4c	4f	4a
=2	=2	=2	=2
2BB-	2B-	2d	2f
2FF	2c	2f	2a
=3	=3	=3	=3
4FF	4A	4f	4cc
4AA	4A	4e	4cc
4BB-	4F	4d	4b-
4FF	4c	4f	4a
=4	=4	=4	=4
2C	2c	2e	2g
2r	2r	2r	2r
=5	=5	=5	=5
2FF	2c	2f	2a
4BB-	4B-	4d	4f
4C	4G	4c	4e
=6	=6	=6	=6
2GG	2G	2Bn	2d
2C	2G	2c	2c
=7	=7	=7	=7
4BB-	4B-	4d	4f
4GG	4B-	4d	4g
4D	4A	4f	4a
4AA	4A	4e	4cc
=8	=8	=8	=8
2BB-	2F	2d	2b-
2FF	2F	2c	2a
=9	=9	=9	=9
2r	2r	2r	2r
2F	2A	2f	2cc
=10	=10	=10	=10
4BB-	4d	4f	4b-
4F	4c	4f	4a
2C	2c	2e	2g
=11	=11	=11	=11
2FF	2c	2f	2a
4C	4c	4e	4g
4D	4A	4d	4f
=12	=12	=12	=12
4BB-	4B-	4d	4f
4C	4G	4c	4e
2FF	2A	2c	2f
=13	=13	=13	=13
2r	2r	2r	2r
2F	2A	2f	2cc
=14	=14	=14	=14
4F	4c	4f	4a
4G	4B-	4d	4b-
2F	2A	2f	2cc
=15	=15	=15	=15
2BB-	2d	2f	2b-
4F	4c	4f	4a
4C	4c	4e	4g
=16	=16	=16	=16
4D	4A	4d	4f
4AA	4A	4c	4e
2BB-	2F	2B-	2d
=17	=17	=17	=17
2FF	2F	2A	2c
2r	2r	2r	2r
=18	=18	=18	=18
2FF	2A	2c	2f
4C	4G	4c	4e
4D	4F	4A	4f
=19	=19	=19	=19
2C	2E	2c	2g
2FF	2F	2c	2a
=20	=20	=20	=20
4BB-	4F	4d	4b-
4FF	4F	4c	4a
4C	4E	4c	4g
4D	4F	4A	4f
=21	=21	=21	=21
2C	2G	2c	2e
2r	2r	2r	2r
=22	=22	=22	=22
2F	2A	2c	2f
4C	4c	4e	4g
4F	4c	4f	4a
=23	=23	=23	=23
2BB-	2d	2f	2b-
2FF	2c	2f	2a
=24	=24	=24	=24
4C	4c	4e	4g
4D	4A	4d	4f
4AA	4A	4c	4e
4D	4A	[4f	4f
=25	=25	=25	=25
2C	2c	4f]	2g
.	.	4e	.
[2FF	[2A	[2f	[2f
=26	=26	=26	=26
2FF]	2A]	2f]	2f]
2ryy	2ryy	2ryy	2ryy
==	==	==	==
*-	*-	*-	*-
!!!software: music21 v.9.7.1
!!!software: music21 v.8.3.0
!!!RDF**kern: > = above
!!!RDF**kern: < = below
